svg/Pictogram/pictograms-recycle-plastic-6-ps.svg

<?xml version="1.0" encoding="UTF-8" standalone="no"?>
<!-- Created with Inkscape (http://www.inkscape.org/) --><svg height="89" id="svg2241" inkscape:export-filename="M:\recyclage4.jpg.png" inkscape:export-xdpi="104" inkscape:export-ydpi="104" inkscape:output_extension="org.inkscape.output.svg.inkscape" inkscape:version="0.46" sodipodi:docbase="M:\" sodipodi:docname="pictograms-recycle-plastic-6-PS.svg" sodipodi:modified="TRUE" sodipodi:version="0.32" version="1.0" width="89" xmlns="http://www.w3.org/2000/svg" xmlns:cc="http://creativecommons.org/ns#" xmlns:dc="http://purl.org/dc/elements/1.1/" xmlns:inkscape="http://www.inkscape.org/namespaces/inkscape" xmlns:rdf="http://www.w3.org/1999/02/22-rdf-syntax-ns#" xmlns:sodipodi="http://sodipodi.sourceforge.net/DTD/sodipodi-0.dtd" xmlns:svg="http://www.w3.org/2000/svg">
  <metadata>
    <rdf:RDF xmlns:cc="http://web.resource.org/cc/" xmlns:dc="http://purl.org/dc/elements/1.1/" xmlns:rdf="http://www.w3.org/1999/02/22-rdf-syntax-ns#">
      <cc:Work rdf:about="">
        <dc:title></dc:title>
        <dc:description></dc:description>
        <dc:subject>
          <rdf:Bag>
            <rdf:li>unsorted</rdf:li>
          </rdf:Bag>
        </dc:subject>
        <dc:publisher>
          <cc:Agent rdf:about="http://www.openclipart.org/">
            <dc:title>Open Clip Art Library, Source: Open Clip Art Library, Source: Open Clip Art Library</dc:title>
          </cc:Agent>
        </dc:publisher>
        <dc:creator>
          <cc:Agent>
            <dc:title></dc:title>
          </cc:Agent>
        </dc:creator>
        <dc:rights>
          <cc:Agent>
            <dc:title></dc:title>
          </cc:Agent>
        </dc:rights>
        <dc:date></dc:date>
        <dc:format>image/svg+xml</dc:format>
        <dc:type rdf:resource="http://purl.org/dc/dcmitype/StillImage"/>
        <cc:license rdf:resource="http://en.wikipedia.org/wiki/Public_domain"/>
        <dc:language>en</dc:language>
      </cc:Work>
    </rdf:RDF>
  </metadata>
  <defs id="defs2244">
    <inkscape:perspective id="perspective49" inkscape:persp3d-origin="165 : 110 : 1" inkscape:vp_x="0 : 165 : 1" inkscape:vp_y="0 : 1000 : 0" inkscape:vp_z="330 : 165 : 1" sodipodi:type="inkscape:persp3d"/>
  </defs>
  <sodipodi:namedview bordercolor="#666666" borderopacity="1.0" gridtolerance="10.0" guidetolerance="10.0" id="base" inkscape:current-layer="svg2241" inkscape:cx="37.499954" inkscape:cy="158.63374" inkscape:guide-bbox="true" inkscape:pageopacity="0.0" inkscape:pageshadow="2" inkscape:window-height="712" inkscape:window-width="1024" inkscape:window-x="-78" inkscape:window-y="72" inkscape:zoom="0.72898565" objecttolerance="10.0" pagecolor="#ffffff" showgrid="false" showguides="true"/>
  <path d="M 51.470601,40.163306 C 51.470585,41.082426 51.302747,41.945596 50.967085,42.752816 C 50.631393,43.560036 50.159846,44.239386 49.552445,44.790856 C 48.905054,45.382286 48.155775,45.833856 47.304606,46.145556 C 46.453413,46.457256 45.456372,46.613106 44.313481,46.613106 C 43.242502,46.613106 42.265442,46.467246 41.382298,46.175526 C 40.499142,45.883806 39.74187,45.438236 39.110482,44.838806 C 38.383178,44.151476 37.827712,43.264326 37.444084,42.177366 C 37.06045,41.090416 36.868635,39.791666 36.868637,38.281116 C 36.868635,36.714626 37.048462,35.323966 37.408118,34.109126 C 37.76777,32.894306 38.355205,31.819336 39.170424,30.884226 C 39.953667,29.989096 40.970688,29.293766 42.221492,28.798226 C 43.472281,28.302726 44.960849,28.054956 46.687199,28.054946 C 47.270626,28.054956 47.910011,28.094926 48.605355,28.174826 C 49.300673,28.254766 49.752239,28.314706 49.960053,28.354656 L 49.960053,31.867276 L 49.504491,31.867276 C 49.288685,31.763396 48.923036,31.645506 48.407546,31.513616 C 47.892028,31.381756 47.306592,31.315826 46.651234,31.315806 C 45.116699,31.315826 43.921849,31.691456 43.066679,32.442726 C 42.211494,33.194016 41.69599,34.241006 41.520166,35.583706 C 42.135567,35.216066 42.784942,34.918356 43.468293,34.690566 C 44.151627,34.462796 44.888918,34.348906 45.680167,34.348896 C 46.375488,34.348906 47.020867,34.428826 47.616306,34.588666 C 48.211721,34.748516 48.765188,35.004276 49.27671,35.355926 C 49.940058,35.819486 50.471546,36.442886 50.871178,37.226126 C 51.270777,38.009386 51.470585,38.988436 51.470601,40.163306 L 51.470601,40.163306 z M 46.015844,42.860706 C 46.263595,42.588976 46.461405,42.267286 46.609274,41.895636 C 46.75712,41.523996 46.831049,41.018486 46.831061,40.379096 C 46.831049,39.795666 46.74713,39.318126 46.579303,38.946476 C 46.411453,38.574836 46.179676,38.277126 45.883971,38.053336 C 45.596237,37.829556 45.256564,37.675706 44.864951,37.591776 C 44.473318,37.507866 44.069706,37.465906 43.654115,37.465896 C 43.302445,37.465906 42.934798,37.505866 42.551175,37.585776 C 42.167537,37.665716 41.815875,37.765616 41.496189,37.885496 C 41.496182,37.965426 41.492186,38.097296 41.4842,38.281116 C 41.476202,38.464946 41.472206,38.696716 41.472212,38.976446 C 41.472206,39.959506 41.570111,40.768726 41.765929,41.404106 C 41.961735,42.039506 42.223483,42.525036 42.551175,42.860706 C 42.774952,43.108476 43.038698,43.290296 43.342414,43.406186 C 43.646114,43.522076 43.973799,43.580026 44.325469,43.580016 C 44.589206,43.580026 44.880926,43.520076 45.200628,43.400196 C 45.520311,43.280306 45.792049,43.100486 46.015844,42.860706 L 46.015844,42.860706 z" id="text2294" style="font-size:24.55240059px;font-style:normal;font-variant:normal;font-weight:bold;font-stretch:normal;text-align:center;line-height:100%;text-anchor:middle;fill:#000000;fill-opacity:1;stroke:none;stroke-width:1px;stroke-linecap:butt;stroke-linejoin:miter;stroke-opacity:1;font-family:Verdana"/>
  <path d="M 42.766873,74.766536 C 42.766856,75.565776 42.626991,76.347026 42.347277,77.110286 C 42.067529,77.873556 41.667914,78.514946 41.148429,79.034436 C 40.437098,79.737766 39.643861,80.269256 38.768716,80.628906 C 37.893545,80.988566 36.804593,81.168386 35.501856,81.168386 L 32.636611,81.168386 L 32.636611,86.982796 L 28.033035,86.982796 L 28.033035,69.131956 L 35.609753,69.131956 C 36.744651,69.131966 37.70173,69.229876 38.480993,69.425666 C 39.26023,69.621496 39.949567,69.915216 40.549005,70.306826 C 41.268298,70.778386 41.81777,71.381806 42.197421,72.117086 C 42.577039,72.852386 42.766856,73.735536 42.766873,74.766536 L 42.766873,74.766536 z M 38.007448,74.874436 C 38.007436,74.370926 37.871567,73.937346 37.59984,73.573686 C 37.32809,73.210046 37.012393,72.956286 36.65275,72.812416 C 36.173201,72.620616 35.705651,72.514716 35.250098,72.494716 C 34.794527,72.474756 34.187112,72.464766 33.42785,72.464746 L 32.636611,72.464746 L 32.636611,77.811606 L 33.955343,77.811606 C 34.738581,77.811616 35.38396,77.763666 35.891482,77.667746 C 36.398984,77.571846 36.824574,77.380036 37.168255,77.092296 C 37.463959,76.836556 37.677753,76.530846 37.809638,76.175186 C 37.941499,75.819536 38.007436,75.385956 38.007448,74.874436 L 38.007448,74.874436 z M 60.306015,81.372186 C 60.305999,83.130496 59.560716,84.559126 58.070164,85.658066 C 56.579584,86.757016 54.555532,87.306486 51.998001,87.306486 C 50.519415,87.306486 49.230655,87.176606 48.131717,86.916856 C 47.03277,86.657106 46.00376,86.327426 45.044684,85.927806 L 45.044684,81.647926 L 45.5482,81.647926 C 46.499283,82.407196 47.564259,82.990636 48.743129,83.398236 C 49.92199,83.805846 51.0549,84.009656 52.141863,84.009656 C 52.421585,84.009656 52.789231,83.985676 53.244803,83.937716 C 53.700355,83.889766 54.071997,83.809846 54.359731,83.697956 C 54.711382,83.554096 55.001103,83.374266 55.228895,83.158466 C 55.456665,82.942686 55.570555,82.622986 55.570567,82.199396 C 55.570555,81.807776 55.404715,81.470096 55.073045,81.186366 C 54.741353,80.902646 54.25582,80.684856 53.616445,80.532996 C 52.945081,80.373156 52.235764,80.223296 51.488491,80.083426 C 50.741202,79.943566 50.039877,79.765736 49.384513,79.549936 C 47.881953,79.062416 46.800993,78.401056 46.14163,77.565846 C 45.482262,76.730656 45.152579,75.693656 45.152581,74.454836 C 45.152579,72.792446 45.897862,71.435756 47.388432,70.384746 C 48.878994,69.333776 50.79515,68.808286 53.136906,68.808266 C 54.311766,68.808286 55.472649,68.922176 56.619559,69.149936 C 57.766442,69.377736 58.759487,69.663456 59.598695,70.007106 L 59.598695,74.119156 L 59.107168,74.119156 C 58.387844,73.543726 57.506692,73.062186 56.463709,72.674546 C 55.420699,72.286936 54.355724,72.093116 53.26878,72.093106 C 52.885139,72.093116 52.503506,72.119096 52.12388,72.171026 C 51.744237,72.222996 51.378589,72.320906 51.026934,72.464746 C 50.715227,72.584646 50.447485,72.766476 50.223706,73.010226 C 49.999915,73.254006 49.888023,73.531736 49.888029,73.843426 C 49.888023,74.314986 50.06785,74.676636 50.42751,74.928376 C 50.787158,75.180146 51.466504,75.409926 52.465552,75.617716 C 53.120912,75.753596 53.750307,75.885476 54.353737,76.013336 C 54.957145,76.141226 55.606521,76.317056 56.301864,76.540826 C 57.668537,76.988406 58.677566,77.597826 59.328955,78.369076 C 59.980312,79.140336 60.305999,80.141376 60.306015,81.372186 L 60.306015,81.372186 z" id="text2314" style="font-size:24.55240059px;font-style:normal;font-variant:normal;font-weight:bold;font-stretch:normal;text-align:center;line-height:100%;text-anchor:middle;fill:#000000;fill-opacity:1;stroke:none;stroke-width:1px;stroke-linecap:butt;stroke-linejoin:miter;stroke-opacity:1;font-family:Verdana"/>
  <path d="M 51.592909,67.133556 C 51.339006,66.838156 50.265084,64.935856 49.206446,62.906216 L 47.281661,59.215966 L 49.193311,55.387046 C 51.289932,51.187616 51.780305,50.483956 52.610054,50.483956 C 53.443055,50.483956 53.800906,51.446216 53.800906,53.686286 L 53.800906,55.701346 L 59.649656,55.701346 C 63.002962,55.701346 66.089904,55.552396 66.884819,55.352236 C 68.66361,54.904336 70.213909,53.445026 70.656282,51.802146 C 71.332026,49.292696 71.132353,48.853266 62.701826,34.294466 C 61.308877,31.888956 60.169185,29.576086 60.169185,29.154756 C 60.169185,28.104786 60.641266,27.618296 62.868967,26.372496 C 64.491543,25.465096 64.895031,25.352756 65.507521,25.637896 C 65.962048,25.849506 67.085105,27.476706 68.53161,30.019526 C 69.797163,32.244286 72.374398,36.729356 74.258795,39.986356 C 76.285933,43.490106 77.836785,46.541186 78.056836,47.458426 C 78.627158,49.835816 78.307025,53.372266 77.337144,55.408656 C 76.310086,57.565106 74.233076,59.742746 72.240035,60.752696 C 69.351107,62.216626 67.715918,62.453256 60.488336,62.453256 L 53.800906,62.453256 L 53.800906,64.576486 C 53.800906,65.744266 53.717091,66.918176 53.614615,67.185176 C 53.365838,67.833476 52.168294,67.802896 51.592909,67.133556 z M 18.967186,62.164666 C 17.223496,61.737136 14.72214,60.241286 13.286893,58.767776 C 10.653997,56.064686 9.5448857,52.478156 10.170453,48.690196 C 10.636538,45.867946 11.350239,44.297846 14.774458,38.561646 C 16.320869,35.971116 17.586113,33.740056 17.586113,33.603736 C 17.586113,33.467406 16.85649,32.944096 15.964728,32.440816 C 13.85087,31.247836 13.451323,30.765766 13.892754,29.940936 C 14.079205,29.592556 14.537638,29.293686 14.911494,29.276796 C 16.504874,29.204796 20.931037,29.337696 22.395391,29.501516 L 23.982167,29.679026 L 26.461883,33.353896 C 28.997025,37.110906 29.394237,38.250826 28.360946,38.803826 C 27.906245,39.047176 27.342485,38.882246 25.761884,38.043456 L 23.743475,36.972336 L 23.309987,37.666776 C 22.060518,39.668376 18.625266,45.605566 17.999082,46.845666 C 16.937721,48.947606 17.002411,51.237376 18.168643,52.847306 C 19.830445,55.141366 20.260557,55.217376 32.57292,55.393116 C 45.280825,55.574496 44.286848,55.244806 44.286848,59.278616 C 44.286848,61.474976 44.206691,61.860746 43.693214,62.135556 C 43.009154,62.501646 20.449893,62.528216 18.967186,62.164666 z M 25.536045,27.220446 C 23.493445,26.020766 23.110403,25.638436 23.110403,24.799316 C 23.110403,24.386536 25.627881,19.675706 28.707678,14.325396 C 34.789016,3.7607362 35.806133,2.4239062 38.922704,0.89944618 C 40.59646,0.080736183 41.041451,0.0018261831 43.994377,4.6183136e-05 C 47.077845,-0.0018238169 47.330183,0.048226183 49.316318,1.0555662 C 52.36189,2.6002362 54.309356,4.9048462 57.637219,10.902396 C 59.156399,13.640296 60.537471,16.065426 60.706269,16.291576 C 60.952529,16.621506 61.343925,16.492626 62.686942,15.639416 C 65.128279,14.088416 66.452789,14.310166 65.963582,16.188016 C 65.750651,17.005506 61.627168,23.498586 61.123169,23.810086 C 60.625092,24.117916 52.469798,24.502956 51.690014,24.255466 C 51.258383,24.118466 51.038761,23.793726 51.038761,23.292426 C 51.038761,22.701016 51.437277,22.287256 52.866319,21.394956 C 53.871464,20.767326 54.700107,20.130706 54.707749,19.980236 C 54.72644,19.611526 49.63065,10.699396 48.659296,9.4020062 C 47.78965,8.2404462 45.820517,7.2238362 44.440301,7.2238362 C 43.200966,7.2238362 41.247436,8.1637662 40.243175,9.2432562 C 39.791531,9.7287462 37.197754,13.992956 34.479226,18.719286 C 31.760696,23.445626 29.307156,27.485266 29.026912,27.696266 C 28.242024,28.287206 27.083479,28.129296 25.536045,27.220446 z" id="path2330" sodipodi:nodetypes="ccccscccssssssssssscccsccssssssscccscccsssssccsssssssssssssssssssc" style="fill:#000000"/>
</svg>

<svg xmlns="http://www.w3.org/2000/svg" viewBox="0 0 89 89"><path d="m51.47 40.16c0 .919-.168 1.782-.504 2.59-.336.807-.807 1.487-1.415 2.038-.647.591-1.397 1.043-2.248 1.355-.851.312-1.848.468-2.991.468-1.071 0-2.048-.146-2.931-.438-.883-.292-1.64-.737-2.272-1.337-.727-.687-1.283-1.574-1.666-2.661-.384-1.087-.575-2.386-.575-3.896 0-1.566.18-2.957.539-4.172.36-1.215.947-2.29 1.762-3.225.783-.895 1.8-1.59 3.051-2.086 1.251-.495 2.739-.743 4.466-.743.583 0 1.223.04 1.918.12.695.08 1.147.14 1.355.18v3.513h-.456c-.216-.104-.581-.222-1.097-.354-.516-.132-1.101-.198-1.756-.198-1.535 0-2.729.376-3.585 1.127-.855.751-1.371 1.798-1.547 3.141.615-.368 1.265-.665 1.948-.893.683-.228 1.421-.342 2.212-.342.695 0 1.341.08 1.936.24.595.16 1.149.416 1.66.767.663.464 1.195 1.087 1.594 1.87.4.783.599 1.762.599 2.937m-5.455 2.697c.248-.272.446-.593.593-.965.148-.372.222-.877.222-1.517 0-.583-.084-1.061-.252-1.433-.168-.372-.4-.669-.695-.893-.288-.224-.627-.378-1.019-.462-.392-.084-.795-.126-1.211-.126-.352 0-.719.04-1.103.12-.384.08-.735.18-1.055.3 0 .08-.004.212-.012.396-.008.184-.012.416-.012.695 0 .983.098 1.792.294 2.428.196.635.458 1.121.785 1.457.224.248.488.43.791.545.304.116.631.174.983.174.264 0 .555-.06.875-.18.32-.12.591-.3.815-.539"/><path d="m42.767 74.77c0 .799-.14 1.58-.42 2.344-.28.763-.679 1.405-1.199 1.924-.711.703-1.505 1.235-2.38 1.594-.875.36-1.964.539-3.267.539h-2.865v5.814h-4.604v-17.851h7.577c1.135 0 2.092.098 2.871.294.779.196 1.469.49 2.068.881.719.472 1.269 1.075 1.648 1.81.38.735.569 1.618.569 2.649m-4.759.108c0-.504-.136-.937-.408-1.301-.272-.364-.587-.617-.947-.761-.48-.192-.947-.298-1.403-.318-.456-.02-1.063-.03-1.822-.03h-.791v5.347h1.319c.783 0 1.429-.048 1.936-.144.508-.096.933-.288 1.277-.575.296-.256.509-.561.641-.917.132-.356.198-.789.198-1.301m22.299 6.498c0 1.758-.745 3.187-2.236 4.286-1.491 1.099-3.515 1.648-6.072 1.648-1.479 0-2.767-.13-3.866-.39-1.099-.26-2.128-.589-3.087-.989v-4.28h.504c.951.759 2.02 1.343 3.195 1.75 1.179.408 2.312.611 3.399.611.28 0 .647-.024 1.103-.072.456-.048.827-.128 1.115-.24.352-.144.641-.324.869-.539.228-.216.342-.535.342-.959 0-.392-.166-.729-.498-1.013-.332-.284-.817-.502-1.457-.653-.671-.16-1.381-.31-2.128-.45-.747-.14-1.449-.318-2.104-.533-1.503-.488-2.584-1.149-3.243-1.984-.659-.835-.989-1.872-.989-3.111 0-1.662.745-3.02 2.236-4.07 1.491-1.051 3.407-1.576 5.748-1.576 1.175 0 2.336.114 3.483.342 1.147.228 2.14.514 2.979.857v4.112h-.492c-.719-.575-1.6-1.057-2.643-1.445-1.043-.388-2.108-.581-3.195-.581-.384 0-.765.026-1.145.078-.38.052-.745.15-1.097.294-.312.12-.579.302-.803.545-.224.244-.336.522-.336.833 0 .472.18.833.539 1.085.36.252 1.039.482 2.038.689.655.136 1.285.268 1.888.396.603.128 1.253.304 1.948.527 1.367.448 2.376 1.057 3.03 1.828.651.771.977 1.772.977 3"/><path d="m51.593 67.13c-.254-.295-1.328-2.198-2.386-4.227l-1.925-3.69 1.912-3.829c2.097-4.199 2.587-4.903 3.417-4.903.833 0 1.191.962 1.191 3.202v2.02h5.849c3.353 0 6.44-.149 7.235-.349 1.779-.448 3.329-1.907 3.771-3.55.676-2.509.476-2.949-7.954-17.508-1.393-2.406-2.533-4.718-2.533-5.14 0-1.05.472-1.536 2.7-2.782 1.623-.907 2.026-1.02 2.639-.735.455.212 1.578 1.839 3.02 4.382 1.266 2.225 3.843 6.71 5.727 9.967 2.027 3.504 3.578 6.555 3.798 7.472.57 2.377.25 5.914-.72 7.95-1.027 2.156-3.104 4.334-5.097 5.344-2.889 1.464-4.524 1.701-11.752 1.701h-6.687v2.123c0 1.168-.084 2.342-.186 2.609-.249.648-1.446.618-2.02-.052m-32.626-4.969c-1.744-.428-4.245-1.923-5.68-3.397-2.633-2.703-3.742-6.29-3.116-10.08.466-2.822 1.18-4.392 4.604-10.129 1.546-2.591 2.812-4.822 2.812-4.958 0-.136-.73-.66-1.621-1.163-2.114-1.193-2.513-1.675-2.072-2.5.186-.348.645-.647 1.019-.664 1.593-.072 6.02.061 7.484.225l1.587.178 2.48 3.675c2.535 3.757 2.932 4.897 1.899 5.45-.455.243-1.018.078-2.599-.76l-2.02-1.071-.433.694c-1.249 2-4.685 7.939-5.311 9.179-1.061 2.102-.997 4.392.17 6 1.662 2.294 2.092 2.37 14.404 2.546 12.708.181 11.714-.148 11.714 3.886 0 2.196-.08 2.582-.594 2.857-.684.366-23.24.393-24.726.029m6.569-34.944c-2.043-1.2-2.426-1.582-2.426-2.421 0-.413 2.517-5.124 5.597-10.474 6.081-10.565 7.098-11.901 10.215-13.426 1.674-.819 2.119-.898 5.072-.899 3.083-.002 3.336.048 5.322 1.056 3.046 1.545 4.993 3.849 8.321 9.847 1.519 2.738 2.9 5.163 3.069 5.389.246.33.638.201 1.981-.652 2.441-1.551 3.766-1.329 3.277.549-.213.817-4.336 7.311-4.84 7.622-.498.308-8.653.693-9.433.445-.432-.137-.651-.462-.651-.963 0-.591.399-1.01 1.828-1.897 1.01-.628 1.834-1.264 1.841-1.415.019-.369-5.077-9.281-6.05-10.578-.87-1.162-2.839-2.178-4.219-2.178-1.239 0-3.193.94-4.197 2.02-.452.485-3.045 4.75-5.764 9.476-2.719 4.726-5.172 8.766-5.452 8.977-.785.591-1.943.433-3.491-.476"/></svg>
